packages/tokens/icons/medal/size32Px.svg

<svg viewBox="0 0 32 32" fill="none" xmlns="http://www.w3.org/2000/svg" width="1em" height="1em"><path d="M15.4746 19.7925L21.1133 29.559C21.3074 29.8951 21.7938 29.8916 21.9829 29.5526L23.5095 26.8168C23.5991 26.6562 23.7696 26.5578 23.9534 26.5605L27.0859 26.6064C27.4741 26.6121 27.7204 26.1926 27.5263 25.8564L21.8876 16.0899" stroke="currentColor" stroke-linecap="round" stroke-linejoin="round"/><path d="M14.472 19.8271L8.85265 29.5602C8.65873 29.8961 8.17283 29.8929 7.98336 29.5545L6.45348 26.822C6.36391 26.662 6.19395 26.5639 6.01061 26.5663L2.87928 26.6076C2.49148 26.6128 2.24575 26.1936 2.43967 25.8577L8.05907 16.1246" stroke="currentColor" stroke-linecap="round" stroke-linejoin="round"/><circle cx="14.9999" cy="11" r="8.5" stroke="currentColor"/><path d="M16.9999 5.34141C16.3744 5.12031 15.7012 5 14.9999 5C11.6862 5 8.99994 7.68629 8.99994 11C8.99994 14.3137 11.6862 17 14.9999 17C18.3136 17 20.9999 14.3137 20.9999 11C20.9999 10.2987 20.8796 9.62556 20.6585 9" stroke="currentColor" stroke-linecap="round"/><path d="M14.9999 6.99344L16.0734 8.83646L16.5055 8.58481L16.0734 8.83646C16.2147 9.07906 16.4515 9.25109 16.7259 9.31051L18.8104 9.76191L17.3893 11.3524C17.2022 11.5617 17.1118 11.8401 17.1401 12.1194L17.3549 14.2414L15.4032 13.3813C15.1463 13.2681 14.8536 13.2681 14.5967 13.3813L12.6449 14.2414L12.8598 12.1194C12.8881 11.8401 12.7976 11.5617 12.6106 11.3524L11.1895 9.76191L13.274 9.31051C13.5484 9.25109 13.7852 9.07906 13.9265 8.83646L14.9999 6.99344Z" stroke="currentColor" stroke-linejoin="round"/></svg>

<svg xmlns="http://www.w3.org/2000/svg" fill="none" viewBox="0 0 32 32" width="1em" height="1em"><path stroke="currentColor" stroke-linecap="round" stroke-linejoin="round" d="m15.475 19.793 5.638 9.766a.5.5 0 0 0 .87-.006l1.526-2.736a.5.5 0 0 1 .444-.256l3.133.045a.5.5 0 0 0 .44-.75l-5.638-9.766m-7.416 3.737-5.62 9.733a.5.5 0 0 1-.869-.005l-1.53-2.733a.5.5 0 0 0-.442-.256l-3.132.042a.5.5 0 0 1-.44-.75l5.62-9.733"/><circle cx="15" cy="11" r="8.5" stroke="currentColor"/><path stroke="currentColor" stroke-linecap="round" d="M17 5.341A6 6 0 1 0 20.659 9"/><path stroke="currentColor" stroke-linejoin="round" d="m15 6.993 1.073 1.843.433-.251-.433.251a1 1 0 0 0 .653.475l2.084.45-1.42 1.591a1 1 0 0 0-.25.767l.215 2.122-1.952-.86a1 1 0 0 0-.806 0l-1.952.86.215-2.122a1 1 0 0 0-.25-.767l-1.42-1.59 2.084-.451a1 1 0 0 0 .653-.475L15 6.993Z"/></svg>
